X: 10355
T: Don't Touch That Green Linnet
R: jig
M: 6/8
K: Dmajor
D2F FEF|AFA d3|baf afd|ege fdA|
D3 FEF|AFA d2a|baf gfe|fdB A3:|
|:a3 fdf|g2B bge|afd B/c/de|dcB A3|
afd dfa|bge efg|afd d2e|1 fdc d3:|2 fdc dAG||
F3 dAF|G2B gdB|c2e a2a|ba^g a2f|
afd dAF|G2B gdB|c2e age|fdc d3||
D2F dAF|G2B gdB|c2e a2a|ba^g a2f|
afd dAF|G2B gdB|c2e age|fdd d3||

